assets/images/afrikons/star-outline.svg

<svg viewBox="0 0 50 50" xmlns="http://www.w3.org/2000/svg"><path d="m0 0h50v50h-50z" fill="none"/><path d="m48.56 19.59a1.18 1.18 0 0 0 -1-.81l-14.84-2.16-6.65-13.47a1.19 1.19 0 0 0 -2.14 0l-6.65 13.47-14.87 2.16a1.19 1.19 0 0 0 -.66 2l10.75 10.53-.06.35-2.44 14.46a1.17 1.17 0 0 0 .48 1.17 1.15 1.15 0 0 0 1.26.09l13.3-7 13.3 7a1.19 1.19 0 0 0 1.66-1.26l-2.5-14.81 10.75-10.49a1.17 1.17 0 0 0 .31-1.23z" fill="none"/><path d="m49.87 19.17a2.55 2.55 0 0 0 -2.08-1.76l-14.15-2.05-6.33-12.83a2.58 2.58 0 0 0 -4.62 0l-6.33 12.83-14.15 2.05a2.57 2.57 0 0 0 -2.08 1.76 2.54 2.54 0 0 0 .65 2.64l10.22 9.98-2.4 14.09a2.58 2.58 0 0 0 3.74 2.72l12.66-6.6 12.65 6.6a2.64 2.64 0 0 0 1.21.3 2.54 2.54 0 0 0 1.51-.49 2.59 2.59 0 0 0 1-2.53l-2.37-14.09 10.24-10a2.54 2.54 0 0 0 .63-2.62zm-12.37 12.14 2.5 14.81a1.19 1.19 0 0 1 -1.73 1.26l-13.3-7-13.3 7a1.15 1.15 0 0 1 -1.26-.09 1.17 1.17 0 0 1 -.41-1.17l2.48-14.46.06-.35-10.79-10.49a1.19 1.19 0 0 1 .66-2l14.87-2.16 6.65-13.51a1.19 1.19 0 0 1 2.14 0l6.65 13.47 14.87 2.16a1.19 1.19 0 0 1 .66 2z"/></svg>

<svg xmlns="http://www.w3.org/2000/svg" viewBox="0 0 50 50"><defs><style>.cls-1{fill:none;}</style></defs><title>star-outline</title><g id="Layer_2" data-name="Layer 2"><g id="Layer_1-2" data-name="Layer 1"><rect class="cls-1" width="50" height="50"/><path class="cls-1" d="M48.56,19.59a1.18,1.18,0,0,0-1-.81L32.72,16.62,26.07,3.15a1.19,1.19,0,0,0-2.14,0L17.28,16.62,2.41,18.78a1.19,1.19,0,0,0-.66,2L12.5,31.31l-.06.35L10,46.12a1.17,1.17,0,0,0,.48,1.17,1.15,1.15,0,0,0,1.26.09l13.3-7,13.3,7A1.19,1.19,0,0,0,40,46.12L37.5,31.31,48.25,20.82A1.17,1.17,0,0,0,48.56,19.59Z"/><path d="M49.87,19.17a2.55,2.55,0,0,0-2.08-1.76L33.64,15.36,27.31,2.53a2.58,2.58,0,0,0-4.62,0L16.36,15.36,2.21,17.41A2.57,2.57,0,0,0,.13,19.17a2.54,2.54,0,0,0,.65,2.64L11,31.79,8.6,45.88a2.58,2.58,0,0,0,3.74,2.72L25,42,37.65,48.6a2.64,2.64,0,0,0,1.21.3,2.54,2.54,0,0,0,1.51-.49,2.59,2.59,0,0,0,1-2.53L39,31.79l10.24-10A2.54,2.54,0,0,0,49.87,19.17ZM37.5,31.31,40,46.12a1.19,1.19,0,0,1-1.73,1.26l-13.3-7-13.3,7a1.15,1.15,0,0,1-1.26-.09A1.17,1.17,0,0,1,10,46.12l2.48-14.46.06-.35L1.75,20.82a1.19,1.19,0,0,1,.66-2l14.87-2.16L23.93,3.15a1.19,1.19,0,0,1,2.14,0l6.65,13.47,14.87,2.16a1.19,1.19,0,0,1,.66,2Z"/></g></g></svg>
